resources/phenylephrine bare.svg

<?xml version="1.0"?>
<!DOCTYPE svg PUBLIC '-//W3C//DTD SVG 1.0//EN'
          'http://www.w3.org/TR/2001/REC-SVG-20010904/DTD/svg10.dtd'>
<svg fill-opacity="1" xmlns:xlink="http://www.w3.org/1999/xlink" color-rendering="auto" color-interpolation="auto" text-rendering="auto" stroke="black" stroke-linecap="square" width="469" stroke-miterlimit="10" shape-rendering="auto" stroke-opacity="1" fill="black" stroke-dasharray="none" font-weight="normal" stroke-width="1" height="475" xmlns="http://www.w3.org/2000/svg" font-family="'Dialog'" font-style="normal" stroke-linejoin="miter" font-size="12px" stroke-dashoffset="0" image-rendering="auto"
><!--Generated by Marvin with Batik SVG Generator
MolSource:
<?xml version="1.0" encoding="windows-1252"?><cml xmlns="http://www.chemaxon.com" xmlns:xsi="http://www.w3.org/2001/XMLSchema-instance" xsi:schemaLocation="http://www.chemaxon.com/marvin/schema/mrvSchema_16_02_15.xsd" version="ChemAxon file format v16.02.15, generated by v17.21.0">
<MDocument><MTextBox id="o1" color="#000000" toption="NOROT" fontScale="10.0" halign="LEFT" valign="TOP" autoSize="true"><Field name="text"><![CDATA[{D font=SansSerif,size=10}]]></Field><MPoint x="-1.875" y="-1.6041666269302368"></MPoint><MPoint x="-1.8750000000000142" y="-1.6041666269302368"></MPoint><MPoint x="-1.8750000000000142" y="-2.37416662693024"></MPoint><MPoint x="-1.8750000000000426" y="-2.37416662693024"></MPoint></MTextBox><MTextBox id="o2" color="#000000" toption="NOROT" fontScale="10.0" halign="LEFT" valign="TOP" autoSize="true"><Field name="text"><![CDATA[{D font=SansSerif,size=10}]]></Field><MPoint x="-11.166666984558105" y="8.416666984558105"></MPoint><MPoint x="-11.16666698455812" y="8.416666984558105"></MPoint><MPoint x="-11.16666698455812" y="7.6466669845581094"></MPoint><MPoint x="-11.166666984558134" y="7.6466669845581094"></MPoint></MTextBox><MChemicalStruct><molecule molID="m1"><atomArray atomID="a1 a2 a3 a4 a5 a6 a7 a8 a9 a10 a11 a12" elementType="C O N C C C C C C C C O" x2="-3.84650647796078 -7.9634131029261805 -5.253366482730385 -6.587045604558421 -7.9634131029261805 -9.291790994781856 -9.211191848967008 -10.502733869627047 -11.874875036101928 -11.955474181916776 -10.66393216125674 -13.24702685655273" y2="7.320690254770923 9.407870380970737 7.947064685107655 7.177064685107656 7.867870380970737 7.088760519379271 5.550837201172043 4.712076681792769 5.411239480620729 6.949162798827956 7.78792331820723 7.787906912751098"></atomArray><bondArray><bond id="b1" atomRefs2="a3 a1" order="1"></bond><bond id="b2" atomRefs2="a4 a3" order="1"></bond><bond id="b3" atomRefs2="a5 a2" order="1"></bond><bond id="b4" atomRefs2="a5 a4" order="1"></bond><bond id="b5" atomRefs2="a6 a5" order="1"></bond><bond id="b6" atomRefs2="a7 a6" order="1"></bond><bond id="b7" atomRefs2="a8 a7" order="2"></bond><bond id="b8" atomRefs2="a9 a8" order="1"></bond><bond id="b9" atomRefs2="a10 a9" order="2"></bond><bond id="b10" atomRefs2="a11 a6" order="2"></bond><bond id="b11" atomRefs2="a11 a10" order="1"></bond><bond id="b12" atomRefs2="a10 a12" order="1"></bond></bondArray></molecule></MChemicalStruct><MTextBox id="o4" color="#000000" toption="NOROT" fontScale="10.0" halign="LEFT" valign="TOP" autoSize="false"><Field name="text"><![CDATA[{D font=SansSerif,size=10}]]></Field><MPoint x="-13.4375" y="3.2083332538604736"></MPoint><MPoint x="-2.1041667461395264" y="3.2083332538604736"></MPoint><MPoint x="-2.1041667461395264" y="0.7083333134651184"></MPoint><MPoint x="-13.4375" y="0.7083333134651184"></MPoint></MTextBox></MDocument>
</cml>
--><defs id="genericDefs"
  /><g
  ><defs id="78022545973-defs1"
    ><clipPath clipPathUnits="userSpaceOnUse" id="7802254589-clipPath1"
      ><path d="M0 0 L469 0 L469 475 L0 475 L0 0 Z"
      /></clipPath
      ><clipPath clipPathUnits="userSpaceOnUse" id="78022545397-clipPath1"
      ><path d="M336.6339 70.686 C327.8742 70.686 320.7731 77.7871 320.7731 86.5468 C320.7731 95.3065 327.8742 102.4077 336.6339 102.4077 C345.3936 102.4077 352.4948 95.3065 352.4948 86.5468 C352.4948 77.7871 345.3936 70.686 336.6339 70.686 Z"
      /></clipPath
      ><clipPath clipPathUnits="userSpaceOnUse" id="78022545829-clipPath1"
      ><path d="M278.0648 87.8362 C266.0373 87.8362 256.2871 97.5864 256.2871 109.6139 C256.2871 121.6413 266.0373 131.3915 278.0648 131.3915 C290.0922 131.3915 299.8424 121.6413 299.8424 109.6139 C299.8424 97.5864 290.0922 87.8362 278.0648 87.8362 Z"
      /></clipPath
      ><clipPath clipPathUnits="userSpaceOnUse" id="78022545180-clipPath1"
      ><path d="M228.4679 64.0729 C217.0643 64.0729 207.8198 73.3173 207.8198 84.721 C207.8198 96.1246 217.0643 105.369 228.4679 105.369 C239.8715 105.369 249.116 96.1246 249.116 84.721 C249.116 73.3173 239.8715 64.0729 228.4679 64.0729 Z"
      /></clipPath
      ><clipPath clipPathUnits="userSpaceOnUse" id="78022545403-clipPath1"
      ><path d="M84.6155 97.2704 C73.2628 97.2704 64.0596 106.4735 64.0596 117.8262 C64.0596 129.1789 73.2628 138.3821 84.6155 138.3821 C95.9682 138.3821 105.1714 129.1789 105.1714 117.8262 C105.1714 106.4735 95.9682 97.2704 84.6155 97.2704 Z"
      /></clipPath
      ><clipPath clipPathUnits="userSpaceOnUse" id="78022545413-clipPath1"
      ><path d="M-369.9909 -91.9384 L99.0091 -91.9384 L99.0091 383.0616 L-369.9909 383.0616 L-369.9909 -91.9384 Z"
      /></clipPath
      ><clipPath clipPathUnits="userSpaceOnUse" id="7802254534-clipPath1"
      ><path d="M-396.819 -102.183 L72.181 -102.183 L72.181 372.817 L-396.819 372.817 L-396.819 -102.183 Z"
      /></clipPath
      ><clipPath clipPathUnits="userSpaceOnUse" id="78022545100-clipPath1"
      ><path d="M-221.6241 -16.7277 L247.3759 -16.7277 L247.3759 458.2723 L-221.6241 458.2723 L-221.6241 -16.7277 Z"
      /></clipPath
      ><clipPath clipPathUnits="userSpaceOnUse" id="78022545145-clipPath1"
      ><path d="M-319.4916 -49.5482 L149.5084 -49.5482 L149.5084 425.4518 L-319.4916 425.4518 L-319.4916 -49.5482 Z"
      /></clipPath
      ><clipPath clipPathUnits="userSpaceOnUse" id="78022545447-clipPath1"
      ><path d="M-319.4906 -69.3672 L149.5094 -69.3672 L149.5094 405.6328 L-319.4906 405.6328 L-319.4906 -69.3672 Z"
      /></clipPath
      ><clipPath clipPathUnits="userSpaceOnUse" id="78022545584-clipPath1"
      ><path d="M-19.0124 -75.1024 L449.9876 -75.1024 L449.9876 399.8976 L-19.0124 399.8976 L-19.0124 -75.1024 Z"
      /></clipPath
    ></defs
    ><g text-rendering="geometricPrecision"
    ><path d="M336.1454 87.6441 L365.1246 100.5465 C365.7308 100.8164 366.4406 100.5439 366.7105 99.9378 C366.9803 99.3316 366.7079 98.6218 366.1017 98.3519 L337.1225 85.4495 C336.5163 85.1797 335.8065 85.4521 335.5366 86.0583 C335.2668 86.6644 335.5392 87.3743 336.1454 87.6441 Z" stroke="none" clip-path="url(#7802254589-clipPath1)"
      /><path fill="rgb(51,51,153)" d="M336.1454 87.6441 L365.1246 100.5465 C365.7308 100.8164 366.4406 100.5439 366.7105 99.9378 C366.9803 99.3316 366.7079 98.6218 366.1017 98.3519 L337.1225 85.4495 C336.5163 85.1797 335.8065 85.4521 335.5366 86.0583 C335.2668 86.6644 335.5392 87.3743 336.1454 87.6441 Z" clip-path="url(#78022545397-clipPath1)" stroke="none"
    /></g
    ><g fill="rgb(51,51,153)" text-rendering="geometricPrecision" stroke="rgb(51,51,153)"
    ><path d="M278.6653 110.6541 L316.3853 88.8765 C316.9599 88.5447 317.1567 87.8103 316.825 87.2357 C316.4932 86.6611 315.7588 86.4643 315.1842 86.796 L277.4642 108.5737 C276.8896 108.9054 276.6928 109.6398 277.0245 110.2145 C277.3563 110.7891 278.0907 110.9859 278.6653 110.6541 Z" stroke="none" clip-path="url(#7802254589-clipPath1)"
      /><path fill="black" d="M278.6653 110.6541 L316.3853 88.8765 C316.9599 88.5447 317.1567 87.8103 316.825 87.2357 C316.4932 86.6611 315.7588 86.4643 315.1842 86.796 L277.4642 108.5737 C276.8896 108.9054 276.6928 109.6398 277.0245 110.2145 C277.3563 110.7891 278.0907 110.9859 278.6653 110.6541 Z" clip-path="url(#78022545829-clipPath1)" stroke="none"
    /></g
    ><g fill="red" text-rendering="geometricPrecision" stroke="red"
    ><path d="M229.669 84.721 L229.669 43.4248 C229.669 42.7613 229.1314 42.2237 228.4679 42.2237 C227.8044 42.2237 227.2668 42.7613 227.2668 43.4248 L227.2668 84.721 C227.2668 85.3845 227.8044 85.9221 228.4679 85.9221 C229.1314 85.9221 229.669 85.3845 229.669 84.721 Z" stroke="none" clip-path="url(#7802254589-clipPath1)"
      /><path fill="black" d="M229.669 84.721 L229.669 43.4248 C229.669 42.7613 229.1314 42.2237 228.4679 42.2237 C227.8044 42.2237 227.2668 42.7613 227.2668 43.4248 L227.2668 84.721 C227.2668 85.3845 227.8044 85.9221 228.4679 85.9221 C229.1314 85.9221 229.669 85.3845 229.669 84.721 Z" clip-path="url(#78022545180-clipPath1)" stroke="none"
    /></g
    ><g text-rendering="geometricPrecision"
    ><path d="M227.9291 85.7945 L277.526 110.6874 C278.119 110.985 278.8406 110.7457 279.1383 110.1527 C279.4359 109.5597 279.1966 108.838 278.6036 108.5404 L229.0067 83.6475 C228.4137 83.3498 227.692 83.5892 227.3944 84.1822 C227.0967 84.7752 227.3361 85.4968 227.9291 85.7945 Z" stroke="none" clip-path="url(#7802254589-clipPath1)"
    /></g
    ><g text-rendering="geometricPrecision"
    ><path d="M181.208 113.832 L229.0756 85.757 C229.6479 85.4214 229.8396 84.6856 229.504 84.1133 C229.1683 83.541 228.4325 83.3492 227.8602 83.6849 L179.9926 111.7598 C179.4203 112.0955 179.2285 112.8312 179.5642 113.4036 C179.8999 113.9759 180.6357 114.1677 181.208 113.832 Z" stroke="none" clip-path="url(#7802254589-clipPath1)"
    /></g
    ><g text-rendering="geometricPrecision"
    ><path d="M184.7042 168.1515 L181.7998 112.733 C181.7651 112.0704 181.2 111.5617 180.5374 111.5964 C179.8748 111.6311 179.3661 112.1962 179.4008 112.8588 L182.3052 168.2772 C182.3399 168.9398 182.9049 169.4486 183.5675 169.4139 C184.2301 169.3791 184.7389 168.8141 184.7042 168.1515 Z" stroke="none" clip-path="url(#7802254589-clipPath1)"
    /></g
    ><g text-rendering="geometricPrecision"
    ><path d="M136.7127 185.2349 C136.1562 185.5963 135.9982 186.34 136.3595 186.8964 C136.7209 187.4529 137.4646 187.611 138.0211 187.2496 L172.8532 164.6287 C173.4096 164.2674 173.5677 163.5236 173.2063 162.9672 C172.845 162.4107 172.1012 162.2527 171.5448 162.614 ZM136.3102 197.4314 C135.7538 197.7928 135.5957 198.5365 135.9571 199.093 C136.3185 199.6494 137.0622 199.8075 137.6186 199.4461 L184.1589 169.2217 C184.7153 168.8603 184.8734 168.1166 184.512 167.5602 C184.1506 167.0037 183.4069 166.8456 182.8505 167.207 Z" stroke="none" clip-path="url(#7802254589-clipPath1)"
    /></g
    ><g text-rendering="geometricPrecision"
    ><path d="M86.9745 174.3149 L136.4191 199.509 C137.0103 199.8102 137.7334 199.5753 138.0347 198.9841 C138.3359 198.3929 138.101 197.6698 137.5098 197.3686 L88.0652 172.1745 C87.474 171.8733 86.7509 172.1082 86.4496 172.6994 C86.1484 173.2906 86.3834 174.0137 86.9745 174.3149 Z" stroke="none" clip-path="url(#7802254589-clipPath1)"
    /></g
    ><g text-rendering="geometricPrecision"
    ><path d="M96.1762 124.2101 C96.1415 123.5475 95.5764 123.0387 94.9138 123.0734 C94.2512 123.1081 93.7425 123.6732 93.7772 124.3358 L95.9509 165.8132 C95.9857 166.4758 96.5507 166.9845 97.2133 166.9498 C97.8759 166.9151 98.3847 166.3501 98.3499 165.6875 ZM85.815 117.7634 C85.7803 117.1008 85.2152 116.592 84.5526 116.6267 C83.89 116.6615 83.3813 117.2265 83.416 117.8891 L86.3204 173.3076 C86.3551 173.9702 86.9201 174.4789 87.5827 174.4442 C88.2453 174.4095 88.7541 173.8445 88.7194 173.1819 Z" stroke="none" clip-path="url(#7802254589-clipPath1)"
    /></g
    ><g text-rendering="geometricPrecision"
    ><path d="M131.701 86.5316 C131.1099 86.2304 130.3867 86.4653 130.0855 87.0565 C129.7843 87.6477 130.0192 88.3708 130.6104 88.672 L180.055 113.8661 C180.6462 114.1673 181.3693 113.9324 181.6705 113.3412 C181.9718 112.75 181.7368 112.0269 181.1456 111.7257 ZM133.3762 98.6193 C132.785 98.318 132.0619 98.553 131.7606 99.1442 C131.4594 99.7354 131.6944 100.4585 132.2855 100.7597 L169.2913 119.6157 C169.8825 119.9169 170.6056 119.682 170.9069 119.0908 C171.2081 118.4996 170.9731 117.7765 170.382 117.4753 Z" stroke="none" clip-path="url(#7802254589-clipPath1)"
    /></g
    ><g text-rendering="geometricPrecision"
    ><path d="M130.5015 86.5945 L83.9613 116.8189 C83.4048 117.1803 83.2468 117.924 83.6081 118.4804 C83.9695 119.0369 84.7132 119.195 85.2697 118.8336 L131.8099 88.6092 C132.3664 88.2478 132.5245 87.5041 132.1631 86.9476 C131.8017 86.3912 131.058 86.2331 130.5015 86.5945 Z" stroke="none" clip-path="url(#7802254589-clipPath1)"
    /></g
    ><g fill="red" text-rendering="geometricPrecision" stroke="red"
    ><path d="M85.2697 116.8189 L50.7905 94.4278 C50.234 94.0664 49.4903 94.2245 49.1289 94.781 C48.7675 95.3374 48.9256 96.0812 49.4821 96.4425 L83.9613 118.8336 C84.5178 119.195 85.2615 119.0369 85.6229 118.4804 C85.9842 117.924 85.8261 117.1803 85.2697 116.8189 Z" stroke="none" clip-path="url(#7802254589-clipPath1)"
      /><path fill="black" d="M85.2697 116.8189 L50.7905 94.4278 C50.234 94.0664 49.4903 94.2245 49.1289 94.781 C48.7675 95.3374 48.9256 96.0812 49.4821 96.4425 L83.9613 118.8336 C84.5178 119.195 85.2615 119.0369 85.6229 118.4804 C85.9842 117.924 85.8261 117.1803 85.2697 116.8189 Z" clip-path="url(#78022545403-clipPath1)" stroke="none"
    /></g
    ><g fill="white" text-rendering="geometricPrecision" stroke="white"
    ><path d="M375.1198 95.3056 C372.5634 95.3056 370.4909 97.378 370.4909 99.9345 L370.4909 109.1923 C370.4909 111.7488 372.5634 113.8212 375.1198 113.8212 L391.6901 113.8212 C394.2466 113.8212 396.319 111.7488 396.319 109.1923 L396.319 116.3784 C396.319 118.9025 398.3652 120.9487 400.8893 120.9487 L401.1237 120.9487 C403.6479 120.9487 405.694 118.9025 405.694 116.3784 L405.694 107.2377 C405.694 104.7136 403.6479 102.6674 401.1237 102.6674 L400.8893 102.6674 C398.3652 102.6674 396.319 104.7136 396.319 107.2377 L396.319 99.9345 C396.319 97.378 394.2466 95.3056 391.6901 95.3056 Z" stroke="none" clip-path="url(#7802254589-clipPath1)"
    /></g
    ><g text-rendering="geometricPrecision" font-size="19px" font-family="sans-serif" transform="translate(369.9909,91.9384)"
    ><text x="0" xml:space="preserve" y="20" clip-path="url(#78022545413-clipPath1)" stroke="none"
      >CH</text
    ></g
    ><g text-rendering="geometricPrecision" font-size="14px" font-family="sans-serif" transform="translate(396.819,102.183)"
    ><text x="0" xml:space="preserve" y="15" clip-path="url(#7802254534-clipPath1)" stroke="none"
      >3</text
    ></g
    ><g fill="white" text-rendering="geometricPrecision" font-size="14px" font-family="sans-serif" stroke="white"
    ><path d="M226.2579 20.0851 C223.6988 20.0851 221.6241 22.1597 221.6241 24.7189 L221.6241 33.9864 C221.6241 36.5456 223.6988 38.6202 226.2579 38.6202 L244.8497 38.6202 C247.4089 38.6202 249.4835 36.5456 249.4835 33.9864 L249.4835 24.7189 C249.4835 22.1597 247.4089 20.0851 244.8497 20.0851 Z" stroke="none" clip-path="url(#7802254589-clipPath1)"
      /><text x="0" font-size="19px" y="20" transform="translate(221.6241,16.7277)" clip-path="url(#78022545100-clipPath1)" fill="red" stroke="none" xml:space="preserve"
      >OH</text
    ></g
    ><g fill="white" text-rendering="geometricPrecision" font-size="19px" font-family="sans-serif" stroke="white"
    ><path d="M324.9642 53.1029 C322.494 53.1029 320.4916 55.1054 320.4916 57.5755 L320.4916 66.5208 C320.4916 68.991 322.494 70.9935 324.9642 70.9935 L327.2377 70.9935 C329.7079 70.9935 331.7103 68.991 331.7103 66.5208 L331.7103 57.5755 C331.7103 55.1054 329.7079 53.1029 327.2377 53.1029 ZM324.9632 72.9219 C322.493 72.9219 320.4906 74.9244 320.4906 77.3946 L320.4906 86.3399 C320.4906 88.8101 322.493 90.8125 324.9632 90.8125 L327.2835 90.8125 C329.7537 90.8125 331.7562 88.8101 331.7562 86.3399 L331.7562 77.3946 C331.7562 74.9244 329.7537 72.9219 327.2835 72.9219 Z" stroke="none" clip-path="url(#7802254589-clipPath1)"
      /><text x="0" y="20" transform="translate(319.4916,49.5482)" clip-path="url(#78022545145-clipPath1)" fill="rgb(51,51,153)" stroke="none" xml:space="preserve"
      >H</text
    ></g
    ><g fill="rgb(51,51,153)" text-rendering="geometricPrecision" font-size="19px" font-family="sans-serif" transform="translate(319.4906,69.3672)" stroke="rgb(51,51,153)"
    ><text x="0" xml:space="preserve" y="20" clip-path="url(#78022545447-clipPath1)" stroke="none"
      >N</text
    ></g
    ><g fill="white" text-rendering="geometricPrecision" font-size="19px" font-family="sans-serif" stroke="white"
    ><path d="M24.6462 78.4598 C22.087 78.4598 20.0124 80.5345 20.0124 83.0936 L20.0124 92.3612 C20.0124 94.9204 22.087 96.995 24.6462 96.995 L41.4255 96.995 C43.9847 96.995 46.0593 94.9204 46.0593 92.3612 L46.0593 83.0936 C46.0593 80.5345 43.9847 78.4598 41.4255 78.4598 Z" stroke="none" clip-path="url(#7802254589-clipPath1)"
      /><text x="0" y="20" transform="translate(19.0124,75.1024)" clip-path="url(#78022545584-clipPath1)" fill="red" stroke="none" xml:space="preserve"
      >HO</text
    ></g
  ></g
></svg
>

<svg color-interpolation="auto" stroke="#000" stroke-linecap="square" width="469" stroke-miterlimit="10" height="475" xmlns="http://www.w3.org/2000/svg" font-family="'Dialog'" font-size="12"><defs><clipPath id="a"><path d="M0 0h469v475H0V0z"/></clipPath><clipPath id="b"><path d="M336.634 70.686c-8.76 0-15.86 7.101-15.86 15.86 0 8.76 7.1 15.862 15.86 15.862s15.86-7.102 15.86-15.861c0-8.76-7.1-15.861-15.86-15.861z"/></clipPath><clipPath id="c"><path d="M278.065 87.836c-12.028 0-21.778 9.75-21.778 21.778 0 12.027 9.75 21.778 21.778 21.778 12.027 0 21.777-9.75 21.777-21.778 0-12.028-9.75-21.778-21.777-21.778z"/></clipPath><clipPath id="d"><path d="M228.468 64.073c-11.404 0-20.648 9.244-20.648 20.648s9.244 20.648 20.648 20.648 20.648-9.244 20.648-20.648-9.245-20.648-20.648-20.648z"/></clipPath><clipPath id="e"><path d="M84.615 97.27c-11.352 0-20.555 9.204-20.555 20.556 0 11.353 9.203 20.556 20.555 20.556 11.353 0 20.556-9.203 20.556-20.556 0-11.352-9.203-20.556-20.556-20.556z"/></clipPath><clipPath id="f"><path d="M-369.99-91.938h469v475h-469v-475z"/></clipPath><clipPath id="g"><path d="M-396.819-102.183h469v475h-469v-475z"/></clipPath><clipPath id="h"><path d="M-221.624-16.728h469v475h-469v-475z"/></clipPath><clipPath id="i"><path d="M-319.492-49.548h469v475h-469v-475z"/></clipPath><clipPath id="j"><path d="M-319.49-69.367h469v475h-469v-475z"/></clipPath><clipPath id="k"><path d="M-19.012-75.102h469v475h-469v-475z"/></clipPath></defs><g text-rendering="geometricPrecision" stroke="none"><path d="M336.145 87.644l28.98 12.902a1.201 1.201 0 1 0 .977-2.194l-28.98-12.903a1.201 1.201 0 1 0-.977 2.195z" clip-path="url(#a)"/><path fill="#339" d="M336.145 87.644l28.98 12.902a1.201 1.201 0 1 0 .977-2.194l-28.98-12.903a1.201 1.201 0 1 0-.977 2.195z" clip-path="url(#b)"/></g><g fill="#339" text-rendering="geometricPrecision" stroke="none"><path d="M278.665 110.654l37.72-21.778a1.201 1.201 0 1 0-1.2-2.08l-37.72 21.778a1.201 1.201 0 1 0 1.2 2.08z" clip-path="url(#a)"/><path fill="#000" d="M278.665 110.654l37.72-21.778a1.201 1.201 0 1 0-1.2-2.08l-37.72 21.778a1.201 1.201 0 1 0 1.2 2.08z" clip-path="url(#c)"/></g><g fill="red" text-rendering="geometricPrecision" stroke="none"><path d="M229.669 84.721V43.425a1.2 1.2 0 1 0-2.402 0V84.72a1.2 1.2 0 1 0 2.402 0z" clip-path="url(#a)"/><path fill="#000" d="M229.669 84.721V43.425a1.2 1.2 0 1 0-2.402 0V84.72a1.2 1.2 0 1 0 2.402 0z" clip-path="url(#d)"/></g><path d="M227.93 85.794l49.596 24.893a1.201 1.201 0 1 0 1.078-2.147l-49.597-24.893a1.2 1.2 0 1 0-1.078 2.147z" stroke="none" clip-path="url(#a)" text-rendering="geometricPrecision"/><path d="M181.208 113.832l47.868-28.075a1.201 1.201 0 1 0-1.216-2.072l-47.867 28.075a1.201 1.201 0 1 0 1.215 2.072z" stroke="none" clip-path="url(#a)" text-rendering="geometricPrecision"/><path d="M184.704 168.151l-2.904-55.418a1.201 1.201 0 1 0-2.4.126l2.905 55.418a1.201 1.201 0 1 0 2.4-.125z" stroke="none" clip-path="url(#a)" text-rendering="geometricPrecision"/><path d="M136.713 185.235a1.201 1.201 0 1 0 1.308 2.015l34.832-22.621a1.2 1.2 0 1 0-1.308-2.015zm-.403 12.196a1.201 1.201 0 1 0 1.309 2.015l46.54-30.224a1.2 1.2 0 1 0-1.308-2.015z" stroke="none" clip-path="url(#a)" text-rendering="geometricPrecision"/><path d="M86.975 174.315l49.444 25.194a1.201 1.201 0 1 0 1.09-2.14l-49.444-25.195a1.201 1.201 0 1 0-1.09 2.14z" stroke="none" clip-path="url(#a)" text-rendering="geometricPrecision"/><path d="M96.176 124.21a1.201 1.201 0 1 0-2.399.126l2.174 41.477a1.201 1.201 0 1 0 2.399-.125zm-10.361-6.447a1.201 1.201 0 1 0-2.399.126l2.904 55.419a1.2 1.2 0 1 0 2.4-.126zM131.701 86.532a1.201 1.201 0 1 0-1.09 2.14l49.444 25.194a1.2 1.2 0 1 0 1.09-2.14zm1.675 12.087a1.201 1.201 0 1 0-1.09 2.14l37.005 18.857a1.201 1.201 0 1 0 1.091-2.14z" stroke="none" clip-path="url(#a)" text-rendering="geometricPrecision"/><path d="M130.501 86.594l-46.54 30.225a1.201 1.201 0 1 0 1.309 2.015l46.54-30.225a1.201 1.201 0 1 0-1.309-2.014z" stroke="none" clip-path="url(#a)" text-rendering="geometricPrecision"/><g fill="red" text-rendering="geometricPrecision" stroke="none"><path d="M85.27 116.819L50.79 94.428a1.201 1.201 0 1 0-1.308 2.014l34.48 22.392a1.201 1.201 0 1 0 1.308-2.015z" clip-path="url(#a)"/><path fill="#000" d="M85.27 116.819L50.79 94.428a1.201 1.201 0 1 0-1.308 2.014l34.48 22.392a1.201 1.201 0 1 0 1.308-2.015z" clip-path="url(#e)"/></g><path d="M375.12 95.306a4.629 4.629 0 0 0-4.63 4.629v9.257a4.629 4.629 0 0 0 4.63 4.63h16.57a4.629 4.629 0 0 0 4.629-4.63v7.186a4.57 4.57 0 0 0 4.57 4.57h.235a4.57 4.57 0 0 0 4.57-4.57v-9.14a4.57 4.57 0 0 0-4.57-4.57h-.235a4.57 4.57 0 0 0-4.57 4.57v-7.303a4.629 4.629 0 0 0-4.629-4.63z" stroke="none" clip-path="url(#a)" fill="#fff" text-rendering="geometricPrecision"/><text y="20" clip-path="url(#f)" stroke="none" transform="translate(369.99 91.938)" text-rendering="geometricPrecision" font-size="19" font-family="sans-serif">CH</text><text y="15" clip-path="url(#g)" stroke="none" transform="translate(396.819 102.183)" text-rendering="geometricPrecision" font-size="14" font-family="sans-serif">3</text><g fill="#fff" text-rendering="geometricPrecision" font-size="14" font-family="sans-serif" stroke="none"><path d="M226.258 20.085a4.634 4.634 0 0 0-4.634 4.634v9.267a4.634 4.634 0 0 0 4.634 4.634h18.592a4.634 4.634 0 0 0 4.633-4.634V24.72a4.634 4.634 0 0 0-4.633-4.634z" clip-path="url(#a)"/><text font-size="19" y="20" transform="translate(221.624 16.728)" clip-path="url(#h)" fill="red">OH</text></g><g fill="#fff" text-rendering="geometricPrecision" font-size="19" font-family="sans-serif" stroke="none"><path d="M324.964 53.103a4.473 4.473 0 0 0-4.472 4.472v8.946a4.473 4.473 0 0 0 4.472 4.472h2.274a4.473 4.473 0 0 0 4.472-4.472v-8.946a4.473 4.473 0 0 0-4.472-4.472zm0 19.819a4.473 4.473 0 0 0-4.473 4.473v8.945a4.473 4.473 0 0 0 4.472 4.472h2.32a4.473 4.473 0 0 0 4.473-4.472v-8.945a4.473 4.473 0 0 0-4.472-4.473z" clip-path="url(#a)"/><text y="20" transform="translate(319.492 49.548)" clip-path="url(#i)" fill="#339">H</text></g><text y="20" clip-path="url(#j)" stroke="none" transform="translate(319.49 69.367)" fill="#339" text-rendering="geometricPrecision" font-size="19" font-family="sans-serif">N</text><g fill="#fff" text-rendering="geometricPrecision" font-size="19" font-family="sans-serif" stroke="none"><path d="M24.646 78.46a4.634 4.634 0 0 0-4.634 4.634v9.267a4.634 4.634 0 0 0 4.634 4.634h16.78a4.634 4.634 0 0 0 4.633-4.634v-9.267a4.634 4.634 0 0 0-4.633-4.634z" clip-path="url(#a)"/><text y="20" transform="translate(19.012 75.102)" clip-path="url(#k)" fill="red">HO</text></g></svg>
